blog/2022/05-17-a-walk-in-the-graph/img/digitalocean_droplet.svg

<svg xmlns="http://www.w3.org/2000/svg" xmlns:xlink="http://www.w3.org/1999/xlink" width="1168" height="452" contentScriptType="application/ecmascript" contentStyleType="text/css" style="width:1168px;height:452px;background:#00000000" preserveAspectRatio="none" version="1.1" viewBox="0 0 1168 452" zoomAndPan="magnify"><g><rect id="digitalocean_droplet" width="211" height="39.789" x="410.78" y="207" fill="#3D176E" codeLine="17" rx="2.5" ry="2.5" style="stroke:#000d19;stroke-width:1.5"/><ellipse cx="425.78" cy="226.894" fill="#E98DF7" rx="11" ry="11" style="stroke:#000d19;stroke-width:1"/><path fill="#000" d="M428.7488,232.5352 Q428.1706,232.832 427.53,232.9727 Q426.8894,233.1289 426.1863,233.1289 Q423.6863,233.1289 422.3581,231.4883 Q421.0456,229.832 421.0456,226.707 Q421.0456,223.582 422.3581,221.9258 Q423.6863,220.2695 426.1863,220.2695 Q426.8894,220.2695 427.53,220.4258 Q428.1863,220.582 428.7488,220.8789 L428.7488,223.5977 Q428.1238,223.0195 427.53,222.7539 Q426.9363,222.4727 426.3113,222.4727 Q424.9675,222.4727 424.28,223.5508 Q423.5925,224.6133 423.5925,226.707 Q423.5925,228.8008 424.28,229.8789 Q424.9675,230.9414 426.3113,230.9414 Q426.9363,230.9414 427.53,230.6758 Q428.1238,230.3945 428.7488,229.8164 L428.7488,232.5352 Z"/><text x="444.78" y="232.78" fill="#D9B8FF" font-family="Helvetica" font-size="17" lengthAdjust="spacing" textLength="169">digitalocean_droplet</text><rect id="digitalocean_floating_ip" width="240" height="39.789" x="223.28" y="307" fill="#3D176E" codeLine="20" rx="2.5" ry="2.5" style="stroke:#000d19;stroke-width:1.5"/><ellipse cx="238.28" cy="326.894" fill="#E98DF7" rx="11" ry="11" style="stroke:#000d19;stroke-width:1"/><path fill="#000" d="M241.2488,332.5352 Q240.6706,332.832 240.03,332.9727 Q239.3894,333.1289 238.6863,333.1289 Q236.1863,333.1289 234.8581,331.4883 Q233.5456,329.832 233.5456,326.707 Q233.5456,323.582 234.8581,321.9258 Q236.1863,320.2695 238.6863,320.2695 Q239.3894,320.2695 240.03,320.4258 Q240.6863,320.582 241.2488,320.8789 L241.2488,323.5977 Q240.6238,323.0195 240.03,322.7539 Q239.4363,322.4727 238.8113,322.4727 Q237.4675,322.4727 236.78,323.5508 Q236.0925,324.6133 236.0925,326.707 Q236.0925,328.8008 236.78,329.8789 Q237.4675,330.9414 238.8113,330.9414 Q239.4363,330.9414 240.03,330.6758 Q240.6238,330.3945 241.2488,329.8164 L241.2488,332.5352 Z"/><text x="257.28" y="332.78" fill="#D9B8FF" font-family="Helvetica" font-size="17" lengthAdjust="spacing" textLength="198">digitalocean_floating_ip</text><rect id="digitalocean_snapshot" width="227" height="39.789" x="482.78" y="407" fill="#3D176E" codeLine="23" rx="2.5" ry="2.5" style="stroke:#000d19;stroke-width:1.5"/><ellipse cx="497.78" cy="426.894" fill="#E98DF7" rx="11" ry="11" style="stroke:#000d19;stroke-width:1"/><path fill="#000" d="M500.7488,432.5352 Q500.1706,432.832 499.53,432.9727 Q498.8894,433.1289 498.1863,433.1289 Q495.6863,433.1289 494.3581,431.4883 Q493.0456,429.832 493.0456,426.707 Q493.0456,423.582 494.3581,421.9258 Q495.6863,420.2695 498.1863,420.2695 Q498.8894,420.2695 499.53,420.4258 Q500.1863,420.582 500.7488,420.8789 L500.7488,423.5977 Q500.1238,423.0195 499.53,422.7539 Q498.9363,422.4727 498.3113,422.4727 Q496.9675,422.4727 496.28,423.5508 Q495.5925,424.6133 495.5925,426.707 Q495.5925,428.8008 496.28,429.8789 Q496.9675,430.9414 498.3113,430.9414 Q498.9363,430.9414 499.53,430.6758 Q500.1238,430.3945 500.7488,429.8164 L500.7488,432.5352 Z"/><text x="516.78" y="432.78" fill="#D9B8FF" font-family="Helvetica" font-size="17" lengthAdjust="spacing" textLength="185">digitalocean_snapshot</text><rect id="digitalocean_volume" width="215" height="39.789" x="569.78" y="307" fill="#3D176E" codeLine="26" rx="2.5" ry="2.5" style="stroke:#000d19;stroke-width:1.5"/><ellipse cx="584.78" cy="326.894" fill="#E98DF7" rx="11" ry="11" style="stroke:#000d19;stroke-width:1"/><path fill="#000" d="M587.7488,332.5352 Q587.1706,332.832 586.53,332.9727 Q585.8894,333.1289 585.1863,333.1289 Q582.6863,333.1289 581.3581,331.4883 Q580.0456,329.832 580.0456,326.707 Q580.0456,323.582 581.3581,321.9258 Q582.6863,320.2695 585.1863,320.2695 Q585.8894,320.2695 586.53,320.4258 Q587.1863,320.582 587.7488,320.8789 L587.7488,323.5977 Q587.1238,323.0195 586.53,322.7539 Q585.9363,322.4727 585.3113,322.4727 Q583.9675,322.4727 583.28,323.5508 Q582.5925,324.6133 582.5925,326.707 Q582.5925,328.8008 583.28,329.8789 Q583.9675,330.9414 585.3113,330.9414 Q585.9363,330.9414 586.53,330.6758 Q587.1238,330.3945 587.7488,329.8164 L587.7488,332.5352 Z"/><text x="603.78" y="332.78" fill="#D9B8FF" font-family="Helvetica" font-size="17" lengthAdjust="spacing" textLength="173">digitalocean_volume</text><rect id="digitalocean_vpc" width="180" height="39.789" x="102.28" y="7" fill="#3D176E" codeLine="29" rx="2.5" ry="2.5" style="stroke:#000d19;stroke-width:1.5"/><ellipse cx="117.28" cy="26.895" fill="#E98DF7" rx="11" ry="11" style="stroke:#000d19;stroke-width:1"/><path fill="#000" d="M120.2488,32.5352 Q119.6706,32.832 119.03,32.9727 Q118.3894,33.1289 117.6863,33.1289 Q115.1863,33.1289 113.8581,31.4883 Q112.5456,29.832 112.5456,26.707 Q112.5456,23.582 113.8581,21.9258 Q115.1863,20.2695 117.6863,20.2695 Q118.3894,20.2695 119.03,20.4258 Q119.6863,20.582 120.2488,20.8789 L120.2488,23.5977 Q119.6238,23.0195 119.03,22.7539 Q118.4363,22.4727 117.8113,22.4727 Q116.4675,22.4727 115.78,23.5508 Q115.0925,24.6133 115.0925,26.707 Q115.0925,28.8008 115.78,29.8789 Q116.4675,30.9414 117.8113,30.9414 Q118.4363,30.9414 119.03,30.6758 Q119.6238,30.3945 120.2488,29.8164 L120.2488,32.5352 Z"/><text x="136.28" y="32.78" fill="#D9B8FF" font-family="Helvetica" font-size="17" lengthAdjust="spacing" textLength="138">digitalocean_vpc</text><rect id="digitalocean_load_balancer" width="267" height="39.789" x="58.78" y="107" fill="#3D176E" codeLine="32" rx="2.5" ry="2.5" style="stroke:#000d19;stroke-width:1.5"/><ellipse cx="73.78" cy="126.894" fill="#E98DF7" rx="11" ry="11" style="stroke:#000d19;stroke-width:1"/><path fill="#000" d="M76.7488,132.5352 Q76.1706,132.832 75.53,132.9727 Q74.8894,133.1289 74.1863,133.1289 Q71.6863,133.1289 70.3581,131.4883 Q69.0456,129.832 69.0456,126.707 Q69.0456,123.582 70.3581,121.9258 Q71.6863,120.2695 74.1863,120.2695 Q74.8894,120.2695 75.53,120.4258 Q76.1863,120.582 76.7488,120.8789 L76.7488,123.5977 Q76.1238,123.0195 75.53,122.7539 Q74.9363,122.4727 74.3113,122.4727 Q72.9675,122.4727 72.28,123.5508 Q71.5925,124.6133 71.5925,126.707 Q71.5925,128.8008 72.28,129.8789 Q72.9675,130.9414 74.3113,130.9414 Q74.9363,130.9414 75.53,130.6758 Q76.1238,130.3945 76.7488,129.8164 L76.7488,132.5352 Z"/><text x="92.78" y="132.78" fill="#D9B8FF" font-family="Helvetica" font-size="17" lengthAdjust="spacing" textLength="225">digitalocean_load_balancer</text><rect id="digitalocean_kubernetes_cluster" width="311" height="39.789" x="360.78" y="107" fill="#3D176E" codeLine="35" rx="2.5" ry="2.5" style="stroke:#000d19;stroke-width:1.5"/><ellipse cx="375.78" cy="126.894" fill="#E98DF7" rx="11" ry="11" style="stroke:#000d19;stroke-width:1"/><path fill="#000" d="M378.7488,132.5352 Q378.1706,132.832 377.53,132.9727 Q376.8894,133.1289 376.1863,133.1289 Q373.6863,133.1289 372.3581,131.4883 Q371.0456,129.832 371.0456,126.707 Q371.0456,123.582 372.3581,121.9258 Q373.6863,120.2695 376.1863,120.2695 Q376.8894,120.2695 377.53,120.4258 Q378.1863,120.582 378.7488,120.8789 L378.7488,123.5977 Q378.1238,123.0195 377.53,122.7539 Q376.9363,122.4727 376.3113,122.4727 Q374.9675,122.4727 374.28,123.5508 Q373.5925,124.6133 373.5925,126.707 Q373.5925,128.8008 374.28,129.8789 Q374.9675,130.9414 376.3113,130.9414 Q376.9363,130.9414 377.53,130.6758 Q378.1238,130.3945 378.7488,129.8164 L378.7488,132.5352 Z"/><text x="394.78" y="132.78" fill="#D9B8FF" font-family="Helvetica" font-size="17" lengthAdjust="spacing" textLength="269">digitalocean_kubernetes_cluster</text><rect id="digitalocean_firewall" width="215" height="39.789" x="706.78" y="107" fill="#3D176E" codeLine="38" rx="2.5" ry="2.5" style="stroke:#000d19;stroke-width:1.5"/><ellipse cx="721.78" cy="126.894" fill="#E98DF7" rx="11" ry="11" style="stroke:#000d19;stroke-width:1"/><path fill="#000" d="M724.7488,132.5352 Q724.1706,132.832 723.53,132.9727 Q722.8894,133.1289 722.1863,133.1289 Q719.6863,133.1289 718.3581,131.4883 Q717.0456,129.832 717.0456,126.707 Q717.0456,123.582 718.3581,121.9258 Q719.6863,120.2695 722.1863,120.2695 Q722.8894,120.2695 723.53,120.4258 Q724.1863,120.582 724.7488,120.8789 L724.7488,123.5977 Q724.1238,123.0195 723.53,122.7539 Q722.9363,122.4727 722.3113,122.4727 Q720.9675,122.4727 720.28,123.5508 Q719.5925,124.6133 719.5925,126.707 Q719.5925,128.8008 720.28,129.8789 Q720.9675,130.9414 722.3113,130.9414 Q722.9363,130.9414 723.53,130.6758 Q724.1238,130.3945 724.7488,129.8164 L724.7488,132.5352 Z"/><text x="740.78" y="132.78" fill="#D9B8FF" font-family="Helvetica" font-size="17" lengthAdjust="spacing" textLength="173">digitalocean_firewall</text><rect id="digitalocean_image" width="204" height="39.789" x="957.28" y="107" fill="#3D176E" codeLine="41" rx="2.5" ry="2.5" style="stroke:#000d19;stroke-width:1.5"/><ellipse cx="972.28" cy="126.894" fill="#E98DF7" rx="11" ry="11" style="stroke:#000d19;stroke-width:1"/><path fill="#000" d="M975.2488,132.5352 Q974.6706,132.832 974.03,132.9727 Q973.3894,133.1289 972.6863,133.1289 Q970.1863,133.1289 968.8581,131.4883 Q967.5456,129.832 967.5456,126.707 Q967.5456,123.582 968.8581,121.9258 Q970.1863,120.2695 972.6863,120.2695 Q973.3894,120.2695 974.03,120.4258 Q974.6863,120.582 975.2488,120.8789 L975.2488,123.5977 Q974.6238,123.0195 974.03,122.7539 Q973.4363,122.4727 972.8113,122.4727 Q971.4675,122.4727 970.78,123.5508 Q970.0925,124.6133 970.0925,126.707 Q970.0925,128.8008 970.78,129.8789 Q971.4675,130.9414 972.8113,130.9414 Q973.4363,130.9414 974.03,130.6758 Q974.6238,130.3945 975.2488,129.8164 L975.2488,132.5352 Z"/><text x="991.28" y="132.78" fill="#D9B8FF" font-family="Helvetica" font-size="17" lengthAdjust="spacing" textLength="162">digitalocean_image</text><path id="digitalocean_droplet-to-digitalocean_floating_ip" fill="none" d="M482.52,247.13 C453.46,263.59 411.57,287.32 381.34,304.44" codeLine="44" style="stroke:#1a83af;stroke-width:2"/><polygon fill="#1A83AF" points="376.97 306.92 386.772 305.959 381.319 304.453 382.825 299 376.97 306.92" style="stroke:#1a83af;stroke-width:2"/><path id="digitalocean_droplet-to-digitalocean_snapshot" fill="none" d="M520.79,247.41 C526.65,271.34 537.88,313.02 552.28,347 C560.45,366.26 572.03,386.86 581.26,402.2" codeLine="45" style="stroke:#1a83af;stroke-width:2"/><polygon fill="#1A83AF" points="584.05 406.79 582.802 397.021 581.457 402.515 575.962 401.17 584.05 406.79" style="stroke:#1a83af;stroke-width:2"/><path id="digitalocean_droplet-to-digitalocean_volume" fill="none" d="M547.71,247.13 C574.64,263.52 613.41,287.12 641.52,304.23" codeLine="46" style="stroke:#1a83af;stroke-width:2"/><polygon fill="#1A83AF" points="645.94 306.92 640.332 298.824 641.669 304.32 636.172 305.657 645.94 306.92" style="stroke:#1a83af;stroke-width:2"/><path id="digitalocean_volume-to-digitalocean_snapshot" fill="none" d="M661.28,347.36 C648.19,363.2 629.63,385.66 615.69,402.52" codeLine="47" style="stroke:#1a83af;stroke-width:2"/><polygon fill="#1A83AF" points="612.25 406.68 621.065 402.288 615.434 402.825 614.897 397.194 612.25 406.68" style="stroke:#1a83af;stroke-width:2"/><path id="digitalocean_vpc-to-digitalocean_load_balancer" fill="none" d="M192.28,47.36 C192.28,62.93 192.28,84.9 192.28,101.66" codeLine="48" style="stroke:#1a83af;stroke-width:2"/><polygon fill="#1A83AF" points="192.28 106.68 196.28 97.68 192.28 101.68 188.28 97.68 192.28 106.68" style="stroke:#1a83af;stroke-width:2"/><path id="digitalocean_vpc-to-digitalocean_kubernetes_cluster" fill="none" d="M255.14,47.01 C310.6,63.79 391.27,88.19 448.24,105.42" codeLine="49" style="stroke:#1a83af;stroke-width:2"/><polygon fill="#1A83AF" points="453.33 106.96 445.868 100.532 448.543 105.517 443.558 108.192 453.33 106.96" style="stroke:#1a83af;stroke-width:2"/><path id="digitalocean_vpc-to-digitalocean_droplet" fill="none" d="M133.57,47.07 C77.38,68.37 6,105.37 41.28,147 C87.03,200.98 279.97,218.12 405.44,223.53" codeLine="50" style="stroke:#1a83af;stroke-width:2"/><polygon fill="#1A83AF" points="410.61 223.75 401.79 219.367 405.615 223.535 401.447 227.36 410.61 223.75" style="stroke:#1a83af;stroke-width:2"/><path id="digitalocean_load_balancer-to-digitalocean_droplet" fill="none" d="M255.14,147.01 C310.6,163.79 391.27,188.19 448.24,205.42" codeLine="51" style="stroke:#1a83af;stroke-width:2"/><polygon fill="#1A83AF" points="453.33 206.96 445.868 200.532 448.543 205.517 443.558 208.192 453.33 206.96" style="stroke:#1a83af;stroke-width:2"/><path id="digitalocean_kubernetes_cluster-to-digitalocean_droplet" fill="none" d="M516.28,147.36 C516.28,162.93 516.28,184.9 516.28,201.66" codeLine="52" style="stroke:#1a83af;stroke-width:2"/><polygon fill="#1A83AF" points="516.28 206.68 520.28 197.68 516.28 201.68 512.28 197.68 516.28 206.68" style="stroke:#1a83af;stroke-width:2"/><path id="digitalocean_firewall-to-digitalocean_droplet" fill="none" d="M756.47,147.01 C705.56,163.75 631.57,188.09 579.19,205.31" codeLine="53" style="stroke:#1a83af;stroke-width:2"/><polygon fill="#1A83AF" points="574.19 206.96 583.988 207.962 578.942 205.405 581.499 200.359 574.19 206.96" style="stroke:#1a83af;stroke-width:2"/><path id="digitalocean_image-to-digitalocean_droplet" fill="none" d="M957.15,146.43 C862.98,163.43 723.56,188.59 626.82,206.05" codeLine="54" style="stroke:#1a83af;stroke-width:2"/><polygon fill="#1A83AF" points="621.66 206.98 631.232 209.298 626.579 206.082 629.795 201.428 621.66 206.98" style="stroke:#1a83af;stroke-width:2"/></g></svg>

<svg xmlns="http://www.w3.org/2000/svg" width="1168" height="452" preserveAspectRatio="none" style="width:1168px;height:452px;background:#00000000"><rect width="211" height="39.789" x="410.78" y="207" fill="#3D176E" rx="2.5" ry="2.5" style="stroke:#000d19;stroke-width:1.5"/><circle cx="425.78" cy="226.894" r="11" fill="#E98DF7" style="stroke:#000d19;stroke-width:1"/><path d="M428.749 232.535q-.578.297-1.219.438-.64.156-1.344.156-2.5 0-3.828-1.64-1.312-1.657-1.312-4.782t1.312-4.781q1.328-1.656 3.828-1.656.703 0 1.344.156.656.156 1.219.453v2.719q-.625-.579-1.219-.844-.594-.281-1.219-.281-1.344 0-2.031 1.078-.688 1.062-.688 3.156 0 2.094.688 3.172.688 1.062 2.031 1.062.625 0 1.219-.265.594-.281 1.219-.86v2.72Z"/><text x="444.78" y="232.78" fill="#D9B8FF" font-family="Helvetica" font-size="17" textLength="169">digitalocean_droplet</text><rect width="240" height="39.789" x="223.28" y="307" fill="#3D176E" rx="2.5" ry="2.5" style="stroke:#000d19;stroke-width:1.5"/><circle cx="238.28" cy="326.894" r="11" fill="#E98DF7" style="stroke:#000d19;stroke-width:1"/><path d="M241.249 332.535q-.578.297-1.219.438-.64.156-1.344.156-2.5 0-3.828-1.64-1.312-1.657-1.312-4.782t1.312-4.781q1.328-1.656 3.828-1.656.703 0 1.344.156.656.156 1.219.453v2.719q-.625-.579-1.219-.844-.594-.281-1.219-.281-1.344 0-2.031 1.078-.688 1.062-.688 3.156 0 2.094.688 3.172.688 1.062 2.031 1.062.625 0 1.219-.265.594-.281 1.219-.86v2.72Z"/><text x="257.28" y="332.78" fill="#D9B8FF" font-family="Helvetica" font-size="17" textLength="198">digitalocean_floating_ip</text><rect width="227" height="39.789" x="482.78" y="407" fill="#3D176E" rx="2.5" ry="2.5" style="stroke:#000d19;stroke-width:1.5"/><circle cx="497.78" cy="426.894" r="11" fill="#E98DF7" style="stroke:#000d19;stroke-width:1"/><path d="M500.749 432.535q-.578.297-1.219.438-.64.156-1.344.156-2.5 0-3.828-1.64-1.312-1.657-1.312-4.782t1.312-4.781q1.328-1.656 3.828-1.656.703 0 1.344.156.656.156 1.219.453v2.719q-.625-.579-1.219-.844-.594-.281-1.219-.281-1.344 0-2.031 1.078-.688 1.062-.688 3.156 0 2.094.688 3.172.688 1.062 2.031 1.062.625 0 1.219-.265.594-.281 1.219-.86v2.72Z"/><text x="516.78" y="432.78" fill="#D9B8FF" font-family="Helvetica" font-size="17" textLength="185">digitalocean_snapshot</text><rect width="215" height="39.789" x="569.78" y="307" fill="#3D176E" rx="2.5" ry="2.5" style="stroke:#000d19;stroke-width:1.5"/><circle cx="584.78" cy="326.894" r="11" fill="#E98DF7" style="stroke:#000d19;stroke-width:1"/><path d="M587.749 332.535q-.578.297-1.219.438-.64.156-1.344.156-2.5 0-3.828-1.64-1.312-1.657-1.312-4.782t1.312-4.781q1.328-1.656 3.828-1.656.703 0 1.344.156.656.156 1.219.453v2.719q-.625-.579-1.219-.844-.594-.281-1.219-.281-1.344 0-2.031 1.078-.688 1.062-.688 3.156 0 2.094.688 3.172.688 1.062 2.031 1.062.625 0 1.219-.265.594-.281 1.219-.86v2.72Z"/><text x="603.78" y="332.78" fill="#D9B8FF" font-family="Helvetica" font-size="17" textLength="173">digitalocean_volume</text><rect width="180" height="39.789" x="102.28" y="7" fill="#3D176E" rx="2.5" ry="2.5" style="stroke:#000d19;stroke-width:1.5"/><circle cx="117.28" cy="26.895" r="11" fill="#E98DF7" style="stroke:#000d19;stroke-width:1"/><path d="M120.249 32.535q-.578.297-1.219.438-.64.156-1.344.156-2.5 0-3.828-1.64-1.312-1.657-1.312-4.782t1.312-4.781q1.328-1.656 3.828-1.656.703 0 1.344.156.656.156 1.219.453v2.719q-.625-.578-1.219-.844-.594-.281-1.219-.281-1.344 0-2.031 1.078-.688 1.062-.688 3.156 0 2.094.688 3.172.688 1.062 2.031 1.062.625 0 1.219-.265.594-.281 1.219-.86v2.72Z"/><text x="136.28" y="32.78" fill="#D9B8FF" font-family="Helvetica" font-size="17" textLength="138">digitalocean_vpc</text><rect width="267" height="39.789" x="58.78" y="107" fill="#3D176E" rx="2.5" ry="2.5" style="stroke:#000d19;stroke-width:1.5"/><circle cx="73.78" cy="126.894" r="11" fill="#E98DF7" style="stroke:#000d19;stroke-width:1"/><path d="M76.749 132.535q-.578.297-1.219.438-.64.156-1.344.156-2.5 0-3.828-1.64-1.312-1.657-1.312-4.782t1.312-4.781q1.328-1.657 3.828-1.657.703 0 1.344.157.656.156 1.219.453v2.719q-.625-.579-1.219-.844-.594-.281-1.219-.281-1.344 0-2.031 1.078-.688 1.062-.688 3.156 0 2.094.688 3.172.688 1.062 2.031 1.062.625 0 1.219-.265.594-.281 1.219-.86v2.72Z"/><text x="92.78" y="132.78" fill="#D9B8FF" font-family="Helvetica" font-size="17" textLength="225">digitalocean_load_balancer</text><rect width="311" height="39.789" x="360.78" y="107" fill="#3D176E" rx="2.5" ry="2.5" style="stroke:#000d19;stroke-width:1.5"/><circle cx="375.78" cy="126.894" r="11" fill="#E98DF7" style="stroke:#000d19;stroke-width:1"/><path d="M378.749 132.535q-.578.297-1.219.438-.64.156-1.344.156-2.5 0-3.828-1.64-1.312-1.657-1.312-4.782t1.312-4.781q1.328-1.657 3.828-1.657.703 0 1.344.157.656.156 1.219.453v2.719q-.625-.579-1.219-.844-.594-.281-1.219-.281-1.344 0-2.031 1.078-.688 1.062-.688 3.156 0 2.094.688 3.172.688 1.062 2.031 1.062.625 0 1.219-.265.594-.281 1.219-.86v2.72Z"/><text x="394.78" y="132.78" fill="#D9B8FF" font-family="Helvetica" font-size="17" textLength="269">digitalocean_kubernetes_cluster</text><rect width="215" height="39.789" x="706.78" y="107" fill="#3D176E" rx="2.5" ry="2.5" style="stroke:#000d19;stroke-width:1.5"/><circle cx="721.78" cy="126.894" r="11" fill="#E98DF7" style="stroke:#000d19;stroke-width:1"/><path d="M724.749 132.535q-.578.297-1.219.438-.64.156-1.344.156-2.5 0-3.828-1.64-1.312-1.657-1.312-4.782t1.312-4.781q1.328-1.657 3.828-1.657.703 0 1.344.157.656.156 1.219.453v2.719q-.625-.579-1.219-.844-.594-.281-1.219-.281-1.344 0-2.031 1.078-.688 1.062-.688 3.156 0 2.094.688 3.172.688 1.062 2.031 1.062.625 0 1.219-.265.594-.281 1.219-.86v2.72Z"/><text x="740.78" y="132.78" fill="#D9B8FF" font-family="Helvetica" font-size="17" textLength="173">digitalocean_firewall</text><rect width="204" height="39.789" x="957.28" y="107" fill="#3D176E" rx="2.5" ry="2.5" style="stroke:#000d19;stroke-width:1.5"/><circle cx="972.28" cy="126.894" r="11" fill="#E98DF7" style="stroke:#000d19;stroke-width:1"/><path d="M975.249 132.535q-.578.297-1.219.438-.64.156-1.344.156-2.5 0-3.828-1.64-1.312-1.657-1.312-4.782t1.312-4.781q1.328-1.657 3.828-1.657.703 0 1.344.157.656.156 1.219.453v2.719q-.625-.579-1.219-.844-.594-.281-1.219-.281-1.344 0-2.031 1.078-.688 1.062-.688 3.156 0 2.094.688 3.172.688 1.062 2.031 1.062.625 0 1.219-.265.594-.281 1.219-.86v2.72Z"/><text x="991.28" y="132.78" fill="#D9B8FF" font-family="Helvetica" font-size="17" textLength="162">digitalocean_image</text><path fill="none" d="M482.52 247.13c-29.06 16.46-70.95 40.19-101.18 57.31" style="stroke:#1a83af;stroke-width:2"/><path fill="#1A83AF" d="m376.97 306.92 9.802-.961-5.453-1.506 1.506-5.453-5.855 7.92z" style="stroke:#1a83af;stroke-width:2"/><path fill="none" d="M520.79 247.41c5.86 23.93 17.09 65.61 31.49 99.59 8.17 19.26 19.75 39.86 28.98 55.2" style="stroke:#1a83af;stroke-width:2"/><path fill="#1A83AF" d="m584.05 406.79-1.248-9.769-1.345 5.494-5.495-1.345 8.088 5.62z" style="stroke:#1a83af;stroke-width:2"/><path fill="none" d="M547.71 247.13c26.93 16.39 65.7 39.99 93.81 57.1" style="stroke:#1a83af;stroke-width:2"/><path fill="#1A83AF" d="m645.94 306.92-5.608-8.096 1.337 5.496-5.497 1.337 9.768 1.263z" style="stroke:#1a83af;stroke-width:2"/><path fill="none" d="M661.28 347.36c-13.09 15.84-31.65 38.3-45.59 55.16" style="stroke:#1a83af;stroke-width:2"/><path fill="#1A83AF" d="m612.25 406.68 8.815-4.392-5.631.537-.537-5.631-2.647 9.486z" style="stroke:#1a83af;stroke-width:2"/><path fill="none" d="M192.28 47.36v54.3" style="stroke:#1a83af;stroke-width:2"/><path fill="#1A83AF" d="m192.28 106.68 4-9-4 4-4-4 4 9z" style="stroke:#1a83af;stroke-width:2"/><path fill="none" d="M255.14 47.01c55.46 16.78 136.13 41.18 193.1 58.41" style="stroke:#1a83af;stroke-width:2"/><path fill="#1A83AF" d="m453.33 106.96-7.462-6.428 2.675 4.985-4.985 2.675 9.772-1.232z" style="stroke:#1a83af;stroke-width:2"/><path fill="none" d="M133.57 47.07C77.38 68.37 6 105.37 41.28 147c45.75 53.98 238.69 71.12 364.16 76.53" style="stroke:#1a83af;stroke-width:2"/><path fill="#1A83AF" d="m410.61 223.75-8.82-4.383 3.825 4.168-4.168 3.825 9.163-3.61z" style="stroke:#1a83af;stroke-width:2"/><path fill="none" d="M255.14 147.01c55.46 16.78 136.13 41.18 193.1 58.41" style="stroke:#1a83af;stroke-width:2"/><path fill="#1A83AF" d="m453.33 206.96-7.462-6.428 2.675 4.985-4.985 2.675 9.772-1.232z" style="stroke:#1a83af;stroke-width:2"/><path fill="none" d="M516.28 147.36v54.3" style="stroke:#1a83af;stroke-width:2"/><path fill="#1A83AF" d="m516.28 206.68 4-9-4 4-4-4 4 9z" style="stroke:#1a83af;stroke-width:2"/><path fill="none" d="M756.47 147.01c-50.91 16.74-124.9 41.08-177.28 58.3" style="stroke:#1a83af;stroke-width:2"/><path fill="#1A83AF" d="m574.19 206.96 9.798 1.002-5.046-2.557 2.557-5.046-7.309 6.601z" style="stroke:#1a83af;stroke-width:2"/><path fill="none" d="M957.15 146.43c-94.17 17-233.59 42.16-330.33 59.62" style="stroke:#1a83af;stroke-width:2"/><path fill="#1A83AF" d="m621.66 206.98 9.572 2.318-4.653-3.216 3.216-4.654-8.135 5.552z" style="stroke:#1a83af;stroke-width:2"/></svg>
